dist/assets/img/telephone.svg

<svg width="22" height="22" viewBox="0 0 22 22" fill="none" xmlns="http://www.w3.org/2000/svg">
<path d="M2.95878 1.73627C3.03737 1.65768 3.07666 1.61839 3.11128 1.58658C3.96244 0.804473 5.27075 0.804473 6.12191 1.58658C6.15653 1.61839 6.19582 1.65768 6.27441 1.73627L7.89651 3.35837C8.78872 4.25058 9.04389 5.59796 8.53971 6.75463C8.03552 7.91129 8.29069 9.25867 9.1829 10.1509L11.8491 12.8171C12.7413 13.7093 14.0887 13.9645 15.2454 13.4603C16.402 12.9561 17.7494 13.2113 18.6416 14.1035L20.2637 15.7256C20.3423 15.8042 20.3816 15.8435 20.4134 15.8781C21.1955 16.7292 21.1955 18.0376 20.4134 18.8887C20.3816 18.9233 20.3423 18.9626 20.2637 19.0412L19.2778 20.0272C18.4748 20.8301 17.3173 21.1672 16.2089 20.9209C8.6561 19.2425 2.75754 13.3439 1.07915 5.79113C0.832822 4.68266 1.16988 3.52517 1.97281 2.72224L2.95878 1.73627Z" stroke="#72BF44" stroke-width="1.5"/>
</svg>

<svg width="22" height="22" fill="none" xmlns="http://www.w3.org/2000/svg"><path d="M2.959 1.736c.078-.078.118-.118.152-.15a2.225 2.225 0 0 1 3.01 0c.036.032.075.072.153.15l1.623 1.622a3.069 3.069 0 0 1 .643 3.397 3.069 3.069 0 0 0 .643 3.396l2.666 2.666a3.069 3.069 0 0 0 3.396.643 3.069 3.069 0 0 1 3.397.643l1.622 1.623c.078.078.118.117.15.152.781.851.781 2.16 0 3.01a5.613 5.613 0 0 1-.15.153l-.986.986a3.321 3.321 0 0 1-3.07.894A19.927 19.927 0 0 1 1.08 5.79a3.321 3.321 0 0 1 .894-3.069l.986-.986Z" stroke="#72BF44" stroke-width="1.5"/></svg>
